!! 00053] TT[KA
!! Kassette von Frau Li Wenzhen, Peking - Zum Gesangsheft
!!!OTL: Nande jinri you xiangfeng
!!!ARE: Guangxi, Nandan
!! Ethnic Group: Zhuang
!! MM,, Seite 32, 3
!!!SCT: C0787
!!!YEM: Copyright 1995, estate of Helmut Schaffrath.
**kern
*ICvox
*Ivox
!! Mixed meters:  2/4; 3/4
*M3/4
*k[f#]
*G:
{8dd
16b
16dd
8b
8b
=1
8dd
16b
16dd
8b
8b}
=2
{8dd
8b
4.dd
8b
=3
*M2/4
8dd
8b
[4dd
=4
2dd]}
=5
{8b
8dd
8ee
8b
=6
8b
8dd
8dd
16b
16b
=7
8dd
8b
4dd}
=8
*M3/4
{8dd
8b
4.dd
8b
=9
*M2/4
8dd
8b
8dd
8b
=10
2dd}
=11
{8a
8b
[4dd
=12
2dd]
=13
8b
8b
[4dd
=14
2dd]}
=15
{8dd
8b
8ee
8ee
=16
2dd
=17
8dd
8b
8ee
8ee
=18
2dd}
==
!!!AGN: NN
!! Die Stuecke sind meist uebersteuert, also verzerrt.
!!    +++ Zum Analysieren nur die untere Zeile kodieren!
!!!ONB: ESAC (Essen Associative Code) Database: CHINA
!!!AMT: irregular
!!!AIN: vox
!!!EED: Helmut Schaffrath
!!!EEV: 1.0
*-
!!!ONB: Tied note syntax fixed by Craig Sapp, 2004/05/03/
